src/svgs/illustrator.svg

<?xml version="1.0" encoding="UTF-8" standalone="no"?>
<svg
   viewBox="0 0 32 32"
   version="1.1"
   id="svg829"
   xmlns="http://www.w3.org/2000/svg"
   xmlns:svg="http://www.w3.org/2000/svg">
  <defs
     id="defs833" />
  <path
     id="path825"
     d="M 7 8 L 7 25 L 25 25 L 25 8 L 7 8 z M 19.699219 11.199219 C 20.099219 11.199219 20.5 11.500391 20.5 11.900391 C 20.5 12.400391 20.199219 12.699219 19.699219 12.699219 C 19.299219 12.699219 18.900391 12.4 18.900391 12 C 18.900391 11.6 19.199219 11.199219 19.699219 11.199219 z M 13.183594 11.361328 C 13.213281 11.362891 13.250781 11.375391 13.300781 11.400391 L 14.800781 11.400391 C 14.900781 11.400391 15 11.399609 15 11.599609 C 15.5 13.099609 15.900391 14.699219 16.400391 16.199219 L 17.599609 20.099609 C 17.699609 20.299609 17.700391 20.300781 17.400391 20.300781 L 16.400391 20.300781 C 16.200391 20.300781 16.199609 20.299609 16.099609 20.099609 C 15.899609 19.399609 15.600391 18.600391 15.400391 17.900391 C 15.400391 17.800391 15.299609 17.699219 15.099609 17.699219 L 13 17.699219 C 12.8 17.699219 12.799219 17.800391 12.699219 17.900391 C 12.499219 18.600391 12.299609 19.399609 12.099609 20.099609 C 12.099609 20.199609 12.000391 20.300781 11.900391 20.300781 L 10.800781 20.300781 C 10.600781 20.300781 10.599609 20.199609 10.599609 20.099609 C 10.999609 18.799609 11.299219 17.499219 11.699219 16.199219 C 12.099219 14.699219 12.6 13.099609 13 11.599609 C 13.075 11.449609 13.094531 11.356641 13.183594 11.361328 z M 14.136719 13.224609 C 14.099219 13.224609 14.05 13.250781 14 13.300781 C 14 13.400781 13.900391 13.499609 13.900391 13.599609 C 13.700391 14.499609 13.499219 15.399219 13.199219 16.199219 C 13.199219 16.299219 13.200781 16.400391 13.300781 16.400391 L 14.699219 16.400391 C 14.899219 16.400391 14.900781 16.299219 14.800781 16.199219 C 14.700781 15.199219 14.499219 14.200781 14.199219 13.300781 C 14.199219 13.250781 14.174219 13.224609 14.136719 13.224609 z M 19.126953 13.361328 C 19.150391 13.362891 19.174219 13.375391 19.199219 13.400391 L 20.099609 13.400391 C 20.299609 13.400391 20.300781 13.499609 20.300781 13.599609 C 20.400781 15.699609 20.400391 17.800781 20.400391 19.800781 C 20.400391 20.300781 20.400391 20.300781 19.900391 20.300781 L 19.199219 20.300781 C 18.999219 20.300781 19 20.299609 19 20.099609 L 19 13.599609 C 19 13.449609 19.056641 13.356641 19.126953 13.361328 z " />
</svg>

<svg xmlns="http://www.w3.org/2000/svg" viewBox="0 0 32 32"><path d="M25 8H7v17h18V8zm-7.6 12.3h-1c-.2 0-.2 0-.3-.2-.2-.7-.5-1.5-.7-2.2 0-.1-.1-.2-.3-.2H13c-.2 0-.2.1-.3.2-.2.7-.4 1.5-.6 2.2 0 .1-.1.2-.2.2h-1.1c-.2 0-.2-.1-.2-.2.4-1.3.7-2.6 1.1-3.9.4-1.5.9-3.1 1.3-4.6.1-.2.1-.3.3-.2h1.5c.1 0 .2 0 .2.2.5 1.5.9 3.1 1.4 4.6l1.2 3.9c.1.2.1.2-.2.2zm3-.5c0 .5 0 .5-.5.5h-.7c-.2 0-.2 0-.2-.2v-6.5c0-.2.1-.3.2-.2h.9c.2 0 .2.1.2.2.1 2.1.1 4.2.1 6.2zm-.7-7.1c-.4 0-.8-.3-.8-.7 0-.4.3-.8.8-.8.4 0 .8.3.8.7 0 .5-.3.8-.8.8z"/><path d="M14.2 13.3c0-.1-.1-.1-.2 0 0 .1-.1.2-.1.3-.2.9-.4 1.8-.7 2.6 0 .1 0 .2.1.2h1.4c.2 0 .2-.1.1-.2-.1-1-.3-2-.6-2.9z"/></svg>
